;FLAVOR:Marlin
;TIME:2672
;Filament used: 1.97939m
;Layer height: 0.2
;MINX:69.614
;MINY:84.262
;MINZ:0.2
;MAXX:164.232
;MAXY:138.5
;MAXZ:10
;Generated with Cura_SteamEngine main
M140 S50
M105
M190 S50
M104 S200
M105
M109 S200
M82 ;absolute extrusion mode
; Ender 3 Custom Start G-code
G92 E0 ; Reset Extruder
G28 ; Home all axes
G1 Z2.0 F3000 ; Move Z Axis up little to prevent scratching of Heat Bed
G1 X0.1 Y20 Z0.3 F5000.0 ; Move to start position
G1 X0.1 Y200.0 Z0.3 F1500.0 E15 ; Draw the first line
G1 X0.4 Y200.0 Z0.3 F5000.0 ; Move to side a little
G1 X0.4 Y20 Z0.3 F1500.0 E30 ; Draw the second line
G92 E0 ; Reset Extruder
G1 Z2.0 F3000 ; Move Z Axis up little to prevent scratching of Heat Bed
G1 X5 Y20 Z0.3 F5000.0 ; Move over to prevent blob squish
G92 E0
G92 E0
G1 F2700 E-5
;LAYER_COUNT:50
;LAYER:0
M107
G0 F6000 X78.168 Y90.976 Z0.2
G0 X70.242 Y104.57
;TYPE:SKIRT
G1 F2700 E0
G1 F1200 X70.378 Y103.991 E0.01978
G1 X70.553 Y103.327 E0.04262
G1 X70.731 Y102.708 E0.06404
G1 X70.996 Y101.881 E0.09293
G1 X71.111 Y101.548 E0.10464
G1 X71.306 Y101.025 E0.12321
G1 X71.569 Y100.36 E0.14699
G1 X71.797 Y99.825 E0.16634
G1 X72.151 Y99.052 E0.19461
G1 X72.342 Y98.655 E0.20927
G1 X72.627 Y98.105 E0.22987
G1 X72.931 Y97.546 E0.25103
G1 X73.254 Y96.982 E0.27265
G1 X73.878 Y95.983 E0.31183
G1 X74.234 Y95.458 E0.33293
G1 X74.636 Y94.894 E0.35596
G1 X75.015 Y94.388 E0.37699
G1 X75.569 Y93.694 E0.40652
G1 X75.992 Y93.195 E0.42828
G1 X76.589 Y92.532 E0.45796
G1 X77.014 Y92.086 E0.47845
G1 X77.74 Y91.374 E0.51227
G1 X78.168 Y90.976 E0.53171
G1 X79.143 Y90.138 E0.57447
G1 X79.666 Y89.721 E0.59671
G1 X80.375 Y89.188 E0.62622
G1 X80.87 Y88.842 E0.6463
G1 X81.443 Y88.459 E0.66923
G1 X81.99 Y88.111 E0.69079
G1 X82.726 Y87.676 E0.71922
G1 X83.278 Y87.369 E0.74023
G1 X84.14 Y86.926 E0.77247
G1 X84.716 Y86.651 E0.7937
G1 X85.858 Y86.156 E0.83509
G1 X86.428 Y85.935 E0.85543
G1 X87.396 Y85.591 E0.8896
G1 X87.984 Y85.404 E0.91012
G1 X88.851 Y85.153 E0.94014
G1 X89.398 Y85.014 E0.95891
G1 X90.411 Y84.785 E0.99345
G1 X91.024 Y84.669 E1.0142
G1 X91.907 Y84.525 E1.04396
G1 X92.517 Y84.446 E1.06442
G1 X93.495 Y84.347 E1.09711
G1 X94.103 Y84.305 E1.11738
G1 X94.702 Y84.277 E1.13733
G1 X95.283 Y84.262 E1.15666
G1 X96.33 Y84.273 E1.19148
G1 X96.985 Y84.298 E1.21328
G1 X98.12 Y84.383 E1.25114
G1 X98.795 Y84.459 E1.27373
G1 X99.767 Y84.597 E1.30639
G1 X100.365 Y84.703 E1.32659
G1 X101.271 Y84.888 E1.35734
G1 X102.897 Y85.261 E1.41283
G1 X105.505 Y85.821 E1.50155
G1 X107.932 Y86.272 E1.58365
G1 X110.473 Y86.668 E1.66919
G1 X112.918 Y86.98 E1.75117
G1 X115.456 Y87.231 E1.83599
G1 X117.966 Y87.407 E1.91968
G1 X120.464 Y87.512 E2.00284
G1 X122.98 Y87.546 E2.08653
G1 X125.511 Y87.508 E2.17072
G1 X128.03 Y87.4 E2.25458
G1 X130.51 Y87.224 E2.33727
G1 X133.057 Y86.969 E2.42241
G1 X134.702 Y86.761 E2.47756
G1 X135.828 Y86.639 E2.51523
G1 X136.778 Y86.567 E2.54691
G1 X137.701 Y86.53 E2.57764
G1 X138.302 Y86.526 E2.59763
G1 X139.299 Y86.546 E2.63079
G1 X139.88 Y86.577 E2.65015
G1 X140.5 Y86.623 E2.67082
G1 X141.085 Y86.68 E2.69037
G1 X142.074 Y86.81 E2.72355
G1 X142.744 Y86.917 E2.74612
G1 X143.927 Y87.153 E2.78624
G1 X144.51 Y87.293 E2.80618
G1 X145.462 Y87.548 E2.83896
G1 X146.051 Y87.726 E2.85943
G1 X146.973 Y88.033 E2.89175
G1 X147.499 Y88.229 E2.91042
G1 X148.106 Y88.469 E2.93213
G1 X148.615 Y88.685 E2.95052
G1 X149.411 Y89.047 E2.9796
G1 X150.039 Y89.357 E3.00289
G1 X150.889 Y89.811 E3.03495
G1 X151.261 Y90.019 E3.04912
G1 X151.792 Y90.335 E3.06967
G1 X152.251 Y90.622 E3.08768
G1 X152.755 Y90.952 E3.10772
G1 X153.598 Y91.546 E3.14201
G1 X154.355 Y92.121 E3.17363
G1 X155.057 Y92.694 E3.20377
G1 X155.533 Y93.109 E3.22478
G1 X155.96 Y93.498 E3.24399
G1 X156.409 Y93.926 E3.26462
G1 X157.121 Y94.652 E3.29844
G1 X157.519 Y95.08 E3.31788
G1 X158.357 Y96.055 E3.36064
G1 X158.774 Y96.578 E3.38289
G1 X159.307 Y97.287 E3.41239
G1 X159.653 Y97.782 E3.43248
G1 X160.227 Y98.651 E3.46712
G1 X160.55 Y99.178 E3.48767
G1 X160.964 Y99.894 E3.51518
G1 X161.286 Y100.494 E3.53783
G1 X161.58 Y101.075 E3.55949
G1 X161.845 Y101.629 E3.57991
G1 X162.2 Y102.436 E3.60924
G1 X162.435 Y103.013 E3.62996
G1 X162.79 Y103.977 E3.66413
G1 X163 Y104.6 E3.68599
G1 X163.241 Y105.401 E3.71381
G1 X163.405 Y106.003 E3.73457
G1 X163.635 Y106.975 E3.76779
G1 X163.71 Y107.323 E3.77963
G1 X163.825 Y107.927 E3.80008
G1 X163.919 Y108.484 E3.81887
G1 X164.005 Y109.071 E3.8386
G1 X164.148 Y110.417 E3.88362
G1 X164.191 Y111.039 E3.90436
G1 X164.216 Y111.57 E3.92204
G1 X164.232 Y112.209 E3.9433
G1 X164.222 Y113.229 E3.97722
G1 X164.196 Y113.898 E3.99949
G1 X164.14 Y114.707 E4.02646
G1 X164.071 Y115.411 E4.04999
G1 X163.953 Y116.314 E4.08028
G1 X163.852 Y116.952 E4.10176
G1 X163.61 Y118.166 E4.14294
G1 X163.471 Y118.76 E4.16323
G1 X163.21 Y119.735 E4.1968
G1 X163.108 Y120.08 E4.20876
G1 X162.86 Y120.851 E4.2357
G1 X162.746 Y121.182 E4.24734
G1 X162.528 Y121.77 E4.2682
G1 X162.143 Y122.724 E4.30242
G1 X161.917 Y123.235 E4.321
G1 X161.646 Y123.815 E4.34229
G1 X161.395 Y124.324 E4.36117
G1 X160.914 Y125.22 E4.39499
G1 X160.433 Y126.043 E4.4267
G1 X160.136 Y126.518 E4.44533
G1 X159.805 Y127.024 E4.46544
G1 X159.234 Y127.837 E4.49849
G1 X158.891 Y128.294 E4.51749
G1 X158.321 Y129.013 E4.54801
G1 X158.047 Y129.344 E4.5623
G1 X157.639 Y129.812 E4.58295
G1 X157.254 Y130.234 E4.60195
G1 X156.832 Y130.677 E4.6223
G1 X156.106 Y131.389 E4.65612
G1 X155.678 Y131.787 E4.67556
G1 X154.726 Y132.607 E4.71735
G1 X154.155 Y133.064 E4.74167
G1 X153.732 Y133.385 E4.75934
G1 X153.26 Y133.723 E4.77864
G1 X152.469 Y134.26 E4.81044
G1 X152.128 Y134.482 E4.82398
G1 X151.605 Y134.804 E4.8444
G1 X151.108 Y135.094 E4.86354
G1 X150.542 Y135.408 E4.88507
G1 X149.717 Y135.832 E4.91592
G1 X149.155 Y136.101 E4.93665
G1 X148.259 Y136.493 E4.96917
G1 X147.735 Y136.707 E4.988
G1 X147.407 Y136.832 E4.99967
G1 X146.473 Y137.165 E5.03265
G1 X145.895 Y137.349 E5.05283
G1 X145.332 Y137.515 E5.07235
G1 X144.709 Y137.684 E5.09382
G1 X143.802 Y137.899 E5.12482
G1 X143.126 Y138.039 E5.14779
G1 X142.275 Y138.187 E5.17651
G1 X141.358 Y138.312 E5.2073
G1 X140.337 Y138.417 E5.24143
G1 X139.708 Y138.46 E5.2624
G1 X138.789 Y138.496 E5.29299
G1 X138.194 Y138.5 E5.31278
G1 X137.553 Y138.491 E5.33411
G1 X136.952 Y138.47 E5.35411
G1 X135.992 Y138.402 E5.38612
G1 X135.42 Y138.346 E5.40523
G1 X134.385 Y138.21 E5.43995
G1 X133.779 Y138.114 E5.46036
G1 X133.424 Y138.049 E5.47236
G1 X132.612 Y137.883 E5.49993
G1 X130.889 Y137.488 E5.55872
G1 X128.343 Y136.941 E5.64534
G1 X125.899 Y136.488 E5.72801
G1 X123.364 Y136.093 E5.81334
G1 X120.907 Y135.779 E5.89572
G1 X118.406 Y135.533 E5.97931
G1 X115.856 Y135.353 E6.06433
G1 X113.381 Y135.25 E6.14672
G1 X110.857 Y135.216 E6.23068
G1 X108.326 Y135.254 E6.31487
G1 X105.819 Y135.361 E6.39833
G1 X103.319 Y135.54 E6.48169
G1 X100.786 Y135.793 E6.56636
G1 X99.042 Y136.013 E6.62483
G1 X97.678 Y136.154 E6.67043
G1 X97.063 Y136.196 E6.69094
G1 X96.144 Y136.232 E6.72153
G1 X95.549 Y136.236 E6.74132
G1 X94.908 Y136.227 E6.76264
G1 X94.307 Y136.206 E6.78264
G1 X93.347 Y136.138 E6.81465
G1 X92.717 Y136.076 E6.8357
G1 X91.8 Y135.957 E6.86646
G1 X91.418 Y135.899 E6.87931
G1 X90.75 Y135.779 E6.90188
G1 X89.922 Y135.608 E6.93001
G1 X89.352 Y135.474 E6.94948
G1 X88.362 Y135.208 E6.98358
G1 X87.734 Y135.018 E7.0054
G1 X87.263 Y134.864 E7.02188
G1 X86.659 Y134.651 E7.04318
G1 X85.426 Y134.163 E7.08729
G1 X84.855 Y133.911 E7.10805
G1 X84.008 Y133.509 E7.13923
G1 X83.474 Y133.232 E7.15924
G1 X82.578 Y132.739 E7.19325
G1 X82.079 Y132.441 E7.21258
G1 X81.316 Y131.96 E7.24258
G1 X80.788 Y131.601 E7.26382
G1 X79.975 Y131.015 E7.29715
G1 X79.521 Y130.664 E7.31624
G1 X79.031 Y130.269 E7.33717
G1 X78.302 Y129.643 E7.36913
G1 X77.647 Y129.04 E7.39874
G1 X77.189 Y128.589 E7.42012
G1 X76.724 Y128.11 E7.44232
G1 X76.327 Y127.683 E7.46172
G1 X75.694 Y126.954 E7.49383
G1 X75.069 Y126.18 E7.52692
G1 X74.54 Y125.476 E7.5562
G1 X74.186 Y124.97 E7.57674
G1 X73.822 Y124.426 E7.59851
G1 X73.492 Y123.909 E7.61891
G1 X73.013 Y123.099 E7.65021
G1 X72.71 Y122.554 E7.67095
G1 X72.53 Y122.213 E7.68378
G1 X72.136 Y121.421 E7.7132
G1 X71.875 Y120.852 E7.73402
G1 X71.643 Y120.318 E7.75339
G1 X71.413 Y119.755 E7.77361
G1 X71.056 Y118.786 E7.80796
G1 X70.937 Y118.439 E7.82016
G1 X70.753 Y117.861 E7.84034
G1 X70.507 Y117.009 E7.86983
G1 X70.363 Y116.444 E7.88922
G1 X70.136 Y115.439 E7.92349
G1 X70.02 Y114.826 E7.94424
G1 X69.877 Y113.944 E7.97396
G1 X69.798 Y113.337 E7.99432
G1 X69.727 Y112.668 E8.0167
G1 X69.673 Y112.011 E8.03862
G1 X69.628 Y111.144 E8.0675
G1 X69.614 Y110.193 E8.09913
G1 X69.634 Y109.196 E8.1323
G1 X69.665 Y108.615 E8.15165
G1 X69.743 Y107.641 E8.18415
G1 X69.812 Y107.039 E8.2043
G1 X69.897 Y106.417 E8.22518
G1 X69.994 Y105.811 E8.24559
G1 X70.069 Y105.408 E8.25923
G1 X70.242 Y104.57 E8.28769
G1 F2700 E3.28769
G0 F6000 X70.014 Y110.199
G1 F2700 E8.28769
G1 F1200 X70.033 Y109.215 E8.32042
G1 X70.064 Y108.645 E8.33941
G1 X70.11 Y108.025 E8.36009
G1 X70.171 Y107.403 E8.38087
G1 X70.294 Y106.471 E8.41214
G1 X70.388 Y105.877 E8.43214
G1 X70.634 Y104.651 E8.47373
G1 X70.765 Y104.093 E8.4928
G1 X71.021 Y103.137 E8.52571
G1 X71.209 Y102.515 E8.54733
G1 X71.487 Y101.685 E8.57644
G1 X71.678 Y101.172 E8.59465
G1 X71.941 Y100.507 E8.61843
G1 X72.161 Y99.991 E8.63709
G1 X72.515 Y99.218 E8.66537
G1 X72.699 Y98.836 E8.67947
G1 X72.978 Y98.296 E8.69968
G1 X73.282 Y97.737 E8.72085
G1 X73.599 Y97.184 E8.74205
G1 X74.211 Y96.205 E8.78045
G1 X74.56 Y95.691 E8.80111
G1 X75.158 Y94.86 E8.83517
G1 X75.521 Y94.391 E8.85489
G1 X75.881 Y93.945 E8.87395
G1 X76.295 Y93.455 E8.89529
G1 X77.097 Y92.575 E8.93489
G1 X77.538 Y92.127 E8.9558
G1 X78.253 Y91.44 E8.98878
G1 X78.68 Y91.056 E9.00788
G1 X79.155 Y90.648 E9.02871
G1 X79.656 Y90.237 E9.05026
G1 X80.607 Y89.514 E9.08999
G1 X81.093 Y89.174 E9.10972
G1 X81.666 Y88.791 E9.13264
G1 X82.202 Y88.45 E9.15377
G1 X82.928 Y88.021 E9.18182
G1 X83.471 Y87.719 E9.20248
G1 X84.321 Y87.283 E9.23426
G1 X84.885 Y87.014 E9.25504
G1 X86.005 Y86.528 E9.29565
G1 X86.564 Y86.311 E9.31559
G1 X87.519 Y85.972 E9.3493
G1 X88.097 Y85.788 E9.36947
G1 X88.952 Y85.54 E9.39908
G1 X89.489 Y85.404 E9.41751
G1 X90.488 Y85.177 E9.45158
G1 X91.09 Y85.063 E9.47196
G1 X91.65 Y84.969 E9.49085
G1 X92.253 Y84.882 E9.51111
G1 X93.191 Y84.776 E9.54251
G1 X93.815 Y84.723 E9.56333
G1 X95.044 Y84.666 E9.60426
G1 X95.63 Y84.662 E9.62375
G1 X96.323 Y84.673 E9.6468
G1 X96.967 Y84.698 E9.66823
G1 X97.8 Y84.756 E9.69601
G1 X98.392 Y84.813 E9.71579
G1 X98.741 Y84.855 E9.72748
G1 X99.7 Y84.991 E9.7597
G1 X100.287 Y85.095 E9.77952
G1 X101.181 Y85.277 E9.80987
G1 X102.856 Y85.661 E9.86702
G1 X105.42 Y86.212 E9.95425
G1 X107.897 Y86.672 E10.03804
G1 X110.367 Y87.057 E10.12119
G1 X112.899 Y87.38 E10.20608
G1 X115.421 Y87.629 E10.29037
G1 X117.922 Y87.805 E10.37376
G1 X120.476 Y87.912 E10.45879
G1 X122.98 Y87.946 E10.54208
G1 X125.534 Y87.908 E10.62703
G1 X128.04 Y87.801 E10.71046
G1 X130.545 Y87.622 E10.79399
G1 X133.107 Y87.366 E10.87962
G1 X134.752 Y87.158 E10.93477
G1 X136.216 Y87.006 E10.98373
G1 X136.797 Y86.967 E11.00309
G1 X137.706 Y86.93 E11.03335
G1 X138.296 Y86.926 E11.05298
G1 X139.28 Y86.945 E11.08571
G1 X139.85 Y86.976 E11.1047
G1 X140.807 Y87.052 E11.13663
G1 X141.352 Y87.115 E11.15487
G1 X142.358 Y87.258 E11.18867
G1 X142.968 Y87.365 E11.20927
G1 X143.508 Y87.472 E11.22758
G1 X144.105 Y87.605 E11.24792
G1 X145.349 Y87.931 E11.29069
G1 X145.634 Y88.015 E11.30058
G1 X146.837 Y88.409 E11.34268
G1 X147.352 Y88.601 E11.36096
G1 X147.959 Y88.841 E11.38267
G1 X148.449 Y89.049 E11.40038
G1 X149.245 Y89.411 E11.42946
G1 X149.851 Y89.71 E11.45194
G1 X150.701 Y90.164 E11.48399
G1 X151.059 Y90.365 E11.49764
G1 X151.58 Y90.674 E11.51779
G1 X152.039 Y90.961 E11.53579
G1 X152.533 Y91.285 E11.55544
G1 X153.366 Y91.872 E11.58934
G1 X153.635 Y92.07 E11.60045
G1 X154.104 Y92.433 E11.62017
G1 X154.796 Y92.998 E11.64989
G1 X155.264 Y93.405 E11.67051
G1 X155.691 Y93.794 E11.68973
G1 X156.131 Y94.213 E11.70993
G1 X156.834 Y94.93 E11.74333
G1 X157.439 Y95.592 E11.77316
G1 X157.847 Y96.067 E11.79399
G1 X158.258 Y96.568 E11.81554
G1 X158.981 Y97.519 E11.85527
G1 X159.321 Y98.005 E11.875
G1 X159.888 Y98.862 E11.90918
G1 X160.205 Y99.379 E11.92935
G1 X160.468 Y99.829 E11.94668
G1 X160.768 Y100.369 E11.96723
G1 X160.929 Y100.675 E11.97873
G1 X161.362 Y101.541 E12.01093
G1 X161.612 Y102.085 E12.03085
G1 X161.833 Y102.595 E12.04933
G1 X162.179 Y103.465 E12.08047
G1 X162.522 Y104.426 E12.11441
G1 X162.714 Y105.026 E12.13536
G1 X162.858 Y105.514 E12.15229
G1 X163.018 Y106.105 E12.17265
G1 X163.245 Y107.065 E12.20546
G1 X163.317 Y107.4 E12.21686
G1 X163.43 Y107.993 E12.23694
G1 X163.524 Y108.55 E12.25572
G1 X163.609 Y109.126 E12.27509
G1 X163.722 Y110.145 E12.30919
G1 X163.791 Y111.057 E12.33961
G1 X163.827 Y111.912 E12.36807
G1 X163.832 Y112.547 E12.38919
G1 X163.822 Y113.223 E12.41168
G1 X163.797 Y113.88 E12.43355
G1 X163.711 Y115.013 E12.47134
G1 X163.639 Y115.65 E12.49266
G1 X163.557 Y116.261 E12.51317
G1 X163.458 Y116.885 E12.53418
G1 X163.218 Y118.086 E12.57491
G1 X163.085 Y118.658 E12.59445
G1 X162.912 Y119.315 E12.61704
G1 X162.724 Y119.966 E12.63958
G1 X162.37 Y121.046 E12.67738
G1 X162.156 Y121.623 E12.69785
G1 X161.777 Y122.564 E12.73159
G1 X161.554 Y123.066 E12.74986
G1 X161.143 Y123.936 E12.78186
G1 X160.89 Y124.426 E12.80021
G1 X160.386 Y125.34 E12.83492
G1 X160.094 Y125.831 E12.85392
G1 X159.797 Y126.306 E12.87255
G1 X159.471 Y126.803 E12.89232
G1 X158.908 Y127.605 E12.92491
G1 X158.577 Y128.045 E12.94323
G1 X158.007 Y128.764 E12.97374
G1 X157.744 Y129.083 E12.9875
G1 X157.344 Y129.542 E13.00775
G1 X156.959 Y129.964 E13.02674
G1 X156.545 Y130.399 E13.04672
G1 X155.828 Y131.102 E13.08012
G1 X155.166 Y131.707 E13.10994
G1 X154.691 Y132.115 E13.13077
G1 X154.195 Y132.523 E13.15213
G1 X153.49 Y133.066 E13.18173
G1 X153.036 Y133.392 E13.20032
G1 X152.245 Y133.929 E13.23212
G1 X151.916 Y134.143 E13.24517
G1 X151.403 Y134.458 E13.26519
G1 X150.655 Y134.891 E13.29394
G1 X150.037 Y135.222 E13.31726
G1 X149.536 Y135.475 E13.33592
G1 X148.69 Y135.871 E13.36699
G1 X147.825 Y136.241 E13.39828
G1 X147.27 Y136.456 E13.41808
G1 X146.349 Y136.785 E13.45061
G1 X145.782 Y136.965 E13.47039
G1 X145.219 Y137.131 E13.48992
G1 X144.607 Y137.297 E13.51101
G1 X143.712 Y137.509 E13.5416
G1 X142.727 Y137.705 E13.575
G1 X141.9 Y137.839 E13.60287
G1 X141.316 Y137.915 E13.62246
G1 X140.625 Y137.989 E13.64557
G1 X140.019 Y138.04 E13.6658
G1 X139.118 Y138.086 E13.6958
G1 X138.199 Y138.1 E13.72637
G1 X137.558 Y138.091 E13.74769
G1 X136.97 Y138.07 E13.76726
G1 X136.022 Y138.003 E13.79887
G1 X135.462 Y137.949 E13.81758
G1 X134.439 Y137.814 E13.8519
G1 X133.844 Y137.72 E13.87194
G1 X132.701 Y137.493 E13.9107
G1 X130.983 Y137.099 E13.96932
G1 X128.429 Y136.55 E14.05621
G1 X125.933 Y136.088 E14.14064
G1 X123.47 Y135.704 E14.22355
G1 X120.93 Y135.38 E14.30871
G1 X118.437 Y135.135 E14.39203
G1 X115.9 Y134.956 E14.47662
G1 X113.368 Y134.85 E14.56091
G1 X110.857 Y134.816 E14.64443
G1 X108.303 Y134.854 E14.72939
G1 X105.807 Y134.961 E14.81248
G1 X103.286 Y135.141 E14.89654
G1 X100.736 Y135.396 E14.98178
G1 X98.787 Y135.64 E15.04711
G1 X97.978 Y135.726 E15.07417
G1 X97.354 Y135.777 E15.09499
G1 X96.474 Y135.822 E15.1243
G1 X95.554 Y135.836 E15.1549
G1 X94.913 Y135.827 E15.17622
G1 X94.325 Y135.806 E15.19579
G1 X93.978 Y135.785 E15.20736
G1 X93.071 Y135.711 E15.23762
G1 X92.464 Y135.643 E15.25794
G1 X91.853 Y135.561 E15.27844
G1 X91.197 Y135.456 E15.30054
G1 X90.003 Y135.216 E15.34105
G1 X89.453 Y135.087 E15.35984
G1 X88.787 Y134.912 E15.38274
G1 X88.147 Y134.728 E15.40489
G1 X87.074 Y134.376 E15.44245
G1 X86.493 Y134.161 E15.46305
G1 X85.863 Y133.911 E15.4856
G1 X85.326 Y133.684 E15.50499
G1 X84.498 Y133.303 E15.5353
G1 X83.665 Y132.881 E15.56636
G1 X82.78 Y132.394 E15.59996
G1 X82.291 Y132.102 E15.6189
G1 X81.807 Y131.8 E15.63787
G1 X81.283 Y131.457 E15.6587
G1 X80.511 Y130.913 E15.69012
G1 X79.772 Y130.353 E15.72096
G1 X79.282 Y129.958 E15.74189
G1 X78.812 Y129.56 E15.76237
G1 X78.15 Y128.963 E15.79202
G1 X77.714 Y128.547 E15.81207
G1 X77.011 Y127.831 E15.84544
G1 X76.623 Y127.413 E15.86441
